src/main/resources/icons/github@20x20.svg

<!-- Copyright 2000-2021 JetBrains s.r.o. and contributors. Use of this source code is governed by the Apache 2.0 license that can be found in the LICENSE file. -->

<svg xmlns="http://www.w3.org/2000/svg" width="20" height="20" viewBox="0 0 16 16">
  <path fill="#161514" fill-rule="evenodd" d="M7.99707713,1 C4.13339149,1 1,4.1329619 1,7.9979363 C1,11.0896581 3.00487223,13.7122732 5.78557461,14.6375989 C6.13568621,14.7020366 6.2632729,14.4859554 6.2632729,14.3003748 C6.2632729,14.1345551 6.25725871,13.6942307 6.25382203,13.1104249 C4.30737333,13.5331364 3.89669027,12.1722117 3.89669027,12.1722117 C3.57836793,11.3637332 3.11957137,11.1485112 3.11957137,11.1485112 C2.48421546,10.7146305 3.16768487,10.7232222 3.16768487,10.7232222 C3.87005601,10.7726245 4.23949893,11.4444951 4.23949893,11.4444951 C4.86368564,12.5137317 5.87750575,12.2048602 6.27616044,12.0257233 C6.33973899,11.5738001 6.52059419,11.2653582 6.72035112,11.0905172 C5.16654292,10.9139579 3.53283195,10.3133983 3.53283195,7.63193005 C3.53283195,6.86812829 3.80561829,6.24308241 4.25324565,5.75421492 C4.1810754,5.57722598 3.9409375,4.86540398 4.32197921,3.90227487 C4.32197921,3.90227487 4.90922163,3.71411673 6.24608951,4.61968148 C6.80412015,4.46417178 7.40296136,4.38684652 7.9979363,4.38383942 C8.59248165,4.38684652 9.19089327,4.46417178 9.74978309,4.61968148 C11.0857918,3.71411673 11.672175,3.90227487 11.672175,3.90227487 C12.0540759,4.86540398 11.813938,5.57722598 11.7421974,5.75421492 C12.1906839,6.24308241 12.4613223,6.86812829 12.4613223,7.63193005 C12.4613223,10.3202717 10.8250338,10.91181 9.26650019,11.0849326 C9.51737771,11.3010138 9.74119139,11.7280211 9.74119139,12.38099 C9.74119139,13.316196 9.7325997,14.0709765 9.7325997,14.3003748 C9.7325997,14.4876738 9.85889763,14.7054733 10.2137347,14.6371693 C12.9922891,13.7096957 14.995443,11.0887989 14.995443,7.9979363 C14.995443,4.1329619 11.8620515,1 7.99707713,1"/>
</svg>

<svg xmlns="http://www.w3.org/2000/svg" width="20" height="20" viewBox="0 0 16 16"><path fill="#161514" fill-rule="evenodd" d="M7.997 1a6.998 6.998 0 0 0-2.211 13.638c.35.064.477-.152.477-.338 0-.165-.006-.606-.01-1.19-1.946.423-2.356-.938-2.356-.938-.319-.808-.777-1.023-.777-1.023-.636-.434.048-.426.048-.426.702.05 1.071.721 1.071.721.625 1.07 1.639.76 2.037.582.064-.452.245-.76.444-.935-1.553-.177-3.187-.778-3.187-3.46 0-.763.273-1.388.72-1.877-.072-.177-.312-.889.069-1.852 0 0 .587-.188 1.924.718a6.7 6.7 0 0 1 1.752-.236 6.7 6.7 0 0 1 1.752.236c1.336-.906 1.922-.718 1.922-.718.382.963.142 1.675.07 1.852a2.7 2.7 0 0 1 .72 1.878c0 2.688-1.637 3.28-3.195 3.453.25.216.474.643.474 1.296 0 .935-.008 1.69-.008 1.92 0 .187.126.404.48.336A6.998 6.998 0 0 0 7.997 1"/></svg>
